src/assets/vectors/home-credits-icon.svg

<svg width="36" height="46" viewBox="0 0 36 46" fill="none" xmlns="http://www.w3.org/2000/svg">
<path fill-rule="evenodd" clip-rule="evenodd" d="M32.2124 11.9637C33.8006 10.7687 34.6415 9.233 34.6415 7.66667C34.6415 6.10033 33.8006 4.56464 32.2124 3.36959C30.6251 2.17515 28.3664 1.39394 25.8113 1.39394C23.2563 1.39394 20.9976 2.17515 19.4102 3.36959C17.822 4.56464 16.9811 6.10033 16.9811 7.66667C16.9811 9.233 17.822 10.7687 19.4102 11.9637C20.9976 13.1582 23.2563 13.9394 25.8113 13.9394C28.3664 13.9394 30.6251 13.1582 32.2124 11.9637ZM34.6415 11.494C32.881 13.7889 29.5858 15.3333 25.8113 15.3333C22.0368 15.3333 18.7417 13.7889 16.9811 11.494V12.197C16.9811 14.2049 17.4621 15.8024 18.7029 16.9201C19.9657 18.0577 22.145 18.8182 25.8113 18.8182C29.8364 18.8182 31.9937 18.0498 33.1593 16.9342C34.3042 15.8385 34.6415 14.2624 34.6415 12.197V11.494ZM36 12.197V7.66667C36 3.43248 31.4384 0 25.8113 0C20.1843 0 15.6226 3.43248 15.6226 7.66667V12.197V17.2104C14.0499 16.4629 12.1864 16.0302 10.1887 16.0302C4.56163 16.0302 0 19.4627 0 23.6969V28.2272V33.4545V38.3333C0 40.4687 0.543515 42.4469 2.19637 43.865C3.8194 45.2575 6.38924 45.9999 10.1887 45.9999C14.3089 45.9999 16.9004 45.2649 18.4511 43.8514C20.0303 42.4118 20.3764 40.4141 20.3774 38.3417V38.5657C20.3774 38.7089 20.3757 38.8508 20.3723 38.9914C21.8062 39.4759 23.6006 39.7273 25.8113 39.7273C29.9315 39.7273 32.5231 38.9923 34.0738 37.5787C35.6551 36.1372 36 34.136 36 32.0606V27.1818V22.303V17.4242V12.197ZM20.3774 37.5129C21.6632 38.0261 23.4226 38.3333 25.8113 38.3333C29.842 38.3333 32.0053 37.5997 33.1715 36.5366C34.3004 35.5076 34.6375 34.0356 34.6415 32.0959C34.4727 32.3064 34.2842 32.5081 34.0738 32.6999C32.5231 34.1135 29.9315 34.8485 25.8113 34.8485C23.6032 34.8485 21.8104 34.5977 20.3774 34.1143V37.5129ZM20.3774 32.6341C21.6632 33.1473 23.4226 33.4545 25.8113 33.4545C29.842 33.4545 32.0053 32.721 33.1715 31.6578C34.3004 30.6288 34.6375 29.1568 34.6415 27.2171C34.4727 27.4276 34.2842 27.6293 34.0738 27.8211C32.5231 29.2347 29.9315 29.9697 25.8113 29.9697C23.6032 29.9697 21.8104 29.7189 20.3774 29.2355V32.6341ZM20.3774 27.7553C21.6632 28.2685 23.4226 28.5758 25.8113 28.5758C29.842 28.5758 32.0053 27.8422 33.1715 26.779C34.3004 25.75 34.6375 24.278 34.6415 22.3383C34.4727 22.5488 34.2842 22.7505 34.0738 22.9424C32.5231 24.3559 29.9315 25.0909 25.8113 25.0909C23.6032 25.0909 21.8104 24.8401 20.3774 24.3567V27.7553ZM20.3162 22.8518C21.6073 23.3799 23.3845 23.697 25.8113 23.697C29.842 23.697 32.0053 22.9634 33.1715 21.9002C34.3072 20.865 34.6415 19.3814 34.6415 17.4242V17.3348C34.476 17.5502 34.2915 17.7568 34.086 17.9535C32.5346 19.4385 29.9371 20.2121 25.8113 20.2121C22.0059 20.2121 19.4305 19.4306 17.8066 17.9676C17.4924 17.6846 17.2185 17.3805 16.9811 17.0581V17.4242C16.9811 17.6178 16.9861 17.8073 16.9963 17.9926C18.8102 19.2191 20.0359 20.9285 20.3162 22.8518ZM25.1321 3.48485C25.1321 3.09992 25.4362 2.78788 25.8113 2.78788C26.7033 2.78788 27.5866 2.91407 28.4107 3.15925C29.2348 3.40444 29.9836 3.76381 30.6143 4.21684C31.2451 4.6699 31.7454 5.20774 32.0867 5.79964C32.4281 6.39161 32.6038 7.02603 32.6038 7.66667C32.6038 8.05159 32.2997 8.36364 31.9245 8.36364C31.5494 8.36364 31.2453 8.05159 31.2453 7.66667C31.2453 7.29404 31.1444 6.90281 30.9176 6.50951C30.6884 6.11207 30.3309 5.71481 29.8353 5.3588C29.3398 5.00292 28.7295 4.70546 28.0324 4.49805C27.336 4.29087 26.5804 4.18182 25.8113 4.18182C25.4362 4.18182 25.1321 3.86977 25.1321 3.48485ZM19.0189 23.6969C19.0189 25.2632 18.178 26.7989 16.5898 27.994C15.0024 29.1884 12.7437 29.9696 10.1887 29.9696C7.63364 29.9696 5.37492 29.1884 3.78756 27.994C2.19939 26.7989 1.35849 25.2632 1.35849 23.6969C1.35849 22.1305 2.19939 20.5949 3.78756 19.3998C5.37492 18.2054 7.63364 17.4242 10.1887 17.4242C12.7437 17.4242 15.0024 18.2054 16.5898 19.3998C18.178 20.5949 19.0189 22.1305 19.0189 23.6969ZM10.1887 31.3636C13.9632 31.3636 17.2583 29.8191 19.0189 27.5243V28.2272C19.0189 30.2927 18.6815 31.8687 17.5367 32.9644C16.3711 34.0801 14.2138 34.8484 10.1887 34.8484C6.52238 34.8484 4.34305 34.088 3.08021 32.9503C1.8395 31.8327 1.35849 30.2351 1.35849 28.2272V27.5243C3.11903 29.8191 6.41416 31.3636 10.1887 31.3636ZM18.4633 33.9838C18.6689 33.787 18.8534 33.5804 19.0189 33.365V33.4545C19.0189 35.4116 18.6846 36.8952 17.5489 37.9305C16.3826 38.9936 14.2194 39.7272 10.1887 39.7272C6.51643 39.7272 4.33155 39.0011 3.06778 37.9168C1.83384 36.8582 1.35849 35.3515 1.35849 33.4545V33.0883C1.59591 33.4107 1.86973 33.7148 2.18394 33.9979C3.80789 35.4608 6.38328 36.2423 10.1887 36.2423C14.3145 36.2423 16.9119 35.4687 18.4633 33.9838ZM1.35849 38.1044V38.3333C1.35849 40.2303 1.83384 41.737 3.06778 42.7956C4.33155 43.8799 6.51643 44.606 10.1887 44.606C14.2194 44.606 16.3826 43.8724 17.5489 42.8093C18.6777 41.7802 19.0148 40.3083 19.0188 38.3685C18.8501 38.579 18.6616 38.7808 18.4511 38.9726C16.9004 40.3862 14.3089 41.1211 10.1887 41.1211C6.38924 41.1211 3.8194 40.3787 2.19637 38.9862C1.87703 38.7122 1.59909 38.4173 1.35849 38.1044ZM10.1887 18.8181C9.81354 18.8181 9.50943 19.1301 9.50943 19.5151C9.50943 19.9 9.81354 20.212 10.1887 20.212C10.9578 20.212 11.7134 20.3211 12.4097 20.5283C13.1069 20.7357 13.7172 21.0331 14.2126 21.389C14.7083 21.745 15.0658 22.1423 15.295 22.5397C15.5218 22.933 15.6226 23.3243 15.6226 23.6969C15.6226 24.0818 15.9268 24.3939 16.3019 24.3939C16.677 24.3939 16.9811 24.0818 16.9811 23.6969C16.9811 23.0563 16.8055 22.4218 16.4641 21.8299C16.1228 21.238 15.6224 20.7001 14.9917 20.2471C14.3609 19.794 13.6121 19.4347 12.788 19.1895C11.9639 18.9443 11.0807 18.8181 10.1887 18.8181Z" fill="#F0F2F9"/>
</svg>

<svg width="36" height="46" fill="none" xmlns="http://www.w3.org/2000/svg"><path fill-rule="evenodd" clip-rule="evenodd" d="M32.212 11.964c1.589-1.195 2.43-2.731 2.43-4.297 0-1.567-.841-3.102-2.43-4.297-1.587-1.195-3.846-1.976-6.4-1.976-2.556 0-4.814.781-6.402 1.976-1.588 1.195-2.429 2.73-2.429 4.297 0 1.566.841 3.102 2.43 4.297 1.587 1.194 3.845 1.975 6.4 1.975s4.814-.78 6.401-1.975zm2.43-.47c-1.761 2.295-5.056 3.84-8.83 3.84-3.775 0-7.07-1.545-8.83-3.84v.703c0 2.008.48 3.605 1.72 4.723 1.264 1.138 3.443 1.898 7.11 1.898 4.024 0 6.182-.768 7.347-1.884 1.145-1.096 1.483-2.672 1.483-4.737v-.703zm1.358.703v-4.53C36 3.432 31.438 0 25.811 0S15.623 3.432 15.623 7.667v9.543c-1.573-.747-3.437-1.18-5.434-1.18C4.562 16.03 0 19.463 0 23.697v14.636c0 2.136.544 4.114 2.196 5.532C3.82 45.257 6.39 46 10.19 46c4.12 0 6.711-.735 8.262-2.149 1.58-1.44 1.925-3.437 1.926-5.51v.225c0 .143-.001.285-.005.425 1.434.485 3.229.736 5.44.736 4.12 0 6.711-.735 8.262-2.148C35.655 36.137 36 34.136 36 32.06V12.197zM20.377 37.513c1.286.513 3.046.82 5.434.82 4.031 0 6.194-.733 7.36-1.796 1.13-1.03 1.467-2.501 1.47-4.441-.168.21-.357.412-.567.604-1.55 1.413-4.142 2.148-8.263 2.148-2.208 0-4-.25-5.434-.734v3.399zm0-4.879c1.286.513 3.046.82 5.434.82 4.031 0 6.194-.733 7.36-1.796 1.13-1.03 1.467-2.501 1.47-4.44-.168.21-.357.411-.567.603-1.55 1.414-4.142 2.149-8.263 2.149-2.208 0-4-.251-5.434-.735v3.4zm0-4.879c1.286.514 3.046.82 5.434.82 4.031 0 6.194-.733 7.36-1.796 1.13-1.029 1.467-2.501 1.47-4.44-.168.21-.357.412-.567.603-1.55 1.414-4.142 2.149-8.263 2.149-2.208 0-4-.25-5.434-.734v3.398zm-.06-4.903c1.29.528 3.067.845 5.494.845 4.031 0 6.194-.734 7.36-1.797 1.136-1.035 1.47-2.519 1.47-4.476v-.09a5.46 5.46 0 0 1-.555.62c-1.551 1.485-4.149 2.258-8.275 2.258-3.805 0-6.38-.781-8.004-2.244a6.048 6.048 0 0 1-.826-.91v.366c0 .194.005.383.015.569 1.814 1.226 3.04 2.936 3.32 4.859zm4.815-19.367c0-.385.304-.697.68-.697.891 0 1.775.126 2.599.371a7.393 7.393 0 0 1 2.203 1.058c.631.453 1.131.99 1.473 1.583.341.592.517 1.226.517 1.867a.688.688 0 0 1-.68.697.688.688 0 0 1-.679-.697c0-.373-.1-.764-.327-1.157-.23-.398-.587-.795-1.083-1.151a6.054 6.054 0 0 0-1.803-.86 7.83 7.83 0 0 0-2.22-.317.688.688 0 0 1-.68-.697zM19.02 23.697c0 1.566-.841 3.102-2.43 4.297-1.587 1.194-3.845 1.976-6.4 1.976s-4.814-.782-6.401-1.976c-1.589-1.195-2.43-2.73-2.43-4.297 0-1.566.841-3.102 2.43-4.297 1.587-1.195 3.846-1.976 6.4-1.976 2.556 0 4.814.781 6.402 1.976 1.588 1.195 2.429 2.73 2.429 4.297zm-8.83 7.667c3.774 0 7.07-1.545 8.83-3.84v.703c0 2.066-.337 3.642-1.482 4.737-1.166 1.116-3.323 1.884-7.348 1.884-3.667 0-5.846-.76-7.109-1.898-1.24-1.117-1.722-2.715-1.722-4.723v-.703c1.761 2.295 5.056 3.84 8.83 3.84zm8.274 2.62c.206-.197.39-.404.556-.619v.09c0 1.957-.334 3.44-1.47 4.476-1.166 1.063-3.33 1.796-7.36 1.796-3.673 0-5.857-.726-7.121-1.81-1.234-1.059-1.71-2.566-1.71-4.462v-.367c.238.323.512.627.826.91 1.624 1.463 4.2 2.244 8.005 2.244 4.126 0 6.723-.773 8.274-2.258zm-17.105 4.12v.23c0 1.896.476 3.403 1.71 4.462 1.264 1.084 3.448 1.81 7.12 1.81 4.031 0 6.195-.734 7.36-1.797 1.13-1.029 1.467-2.5 1.47-4.44-.168.21-.356.412-.567.604-1.55 1.413-4.142 2.148-8.262 2.148-3.8 0-6.37-.742-7.993-2.135a5.894 5.894 0 0 1-.838-.882zm8.83-19.286a.688.688 0 0 0-.679.697c0 .385.305.697.68.697.769 0 1.524.11 2.22.316a6.051 6.051 0 0 1 1.804.861c.495.356.853.753 1.082 1.15.227.394.328.785.328 1.158 0 .385.304.697.679.697.375 0 .68-.312.68-.697a3.72 3.72 0 0 0-.518-1.867c-.341-.592-.842-1.13-1.472-1.583a7.393 7.393 0 0 0-2.204-1.058 9.154 9.154 0 0 0-2.6-.37z" fill="#F0F2F9"/></svg>
